dist/img/partners/7.svg

<svg width="172" height="38" viewBox="0 0 172 38" fill="none" xmlns="http://www.w3.org/2000/svg">
<g clip-path="url(#clip0_216_738)">
<path d="M119.449 31.2H126.749L121.549 22.2C124.449 21 126.049 18.6 126.049 15.6C126.049 11 123.049 8 117.049 8H105.549V31.2H111.849V23.1H115.049L119.449 31.2ZM119.649 15.6C119.649 17.2 118.549 18.4 116.149 18.4H111.749V12.8H116.149C118.549 12.8 119.649 14 119.649 15.6ZM94.2492 14.5V21.9C94.2492 25.3 92.6492 26.4 90.4492 26.4C88.3492 26.4 86.6492 25.2 86.6492 21.9V14.4H80.2492V22.2C80.2492 28.3 83.6492 31.7 90.5492 31.7C97.4492 31.7 100.749 28.3 100.749 22.3V14.5H94.2492ZM86.6492 12.4V8H80.2492V12.4H86.6492ZM94.2492 12.4H100.649V8H94.2492V12.4ZM53.6492 23.4L50.3492 8H43.9492L49.8492 31.2H56.6492L60.6492 16L64.6492 31.2H71.4492L77.3492 8H70.9492L67.6492 23.4L63.6492 8H57.6492L53.6492 23.4ZM164.549 16.3H156.749V8H150.349V31.2H156.749V21.5H164.549V31.2H171.049V8H164.549V16.3ZM134.349 13.1V31.3H140.749V13.1H146.749V8H128.349V13.1H134.349Z" fill="#1F2120"/>
<path d="M34.2492 15.0998H0.949219V0.799805H14.8492V6.3998H20.4492V0.799805H34.3492V15.0998H34.2492ZM20.3492 31.6998V37.2998C28.3492 35.7998 34.2492 28.8998 34.2492 21.0998V20.7998H0.949219V21.0998C0.949219 28.7998 6.84922 35.6998 14.8492 37.1998V31.5998H20.3492V31.6998Z" fill="#CC0000"/>
</g>
<defs>
<clipPath id="clip0_216_738">
<rect width="170.1" height="36.4" fill="white" transform="translate(0.949219 0.799805)"/>
</clipPath>
</defs>
</svg>

<svg width="172" height="38" viewBox="0 0 172 38" fill="none" xmlns="http://www.w3.org/2000/svg"><g clip-path="url(#clip0_216_738)"><path d="M119.449 31.2h7.3l-5.2-9c2.9-1.2 4.5-3.6 4.5-6.6 0-4.6-3-7.6-9-7.6h-11.5v23.2h6.3v-8.1h3.2l4.4 8.1zm.2-15.6c0 1.6-1.1 2.8-3.5 2.8h-4.4v-5.6h4.4c2.4 0 3.5 1.2 3.5 2.8zm-25.4-1.1v7.4c0 3.4-1.6 4.5-3.8 4.5-2.1 0-3.8-1.2-3.8-4.5v-7.5h-6.4v7.8c0 6.1 3.4 9.5 10.3 9.5s10.2-3.4 10.2-9.4v-7.8h-6.5zm-7.6-2.1V8h-6.4v4.4h6.4zm7.6 0h6.4V8h-6.4v4.4zm-40.6 11L50.35 8h-6.4l5.9 23.2h6.8l4-15.2 4 15.2h6.8L77.35 8h-6.4l-3.3 15.4-4-15.4h-6l-4 15.4zm110.9-7.1h-7.8V8h-6.4v23.2h6.4v-9.7h7.8v9.7h6.5V8h-6.5v8.3zm-30.2-3.2v18.2h6.4V13.1h6V8h-18.4v5.1h6z" fill="#1F2120"/><path d="M34.25 15.1H.95V.8h13.9v5.6h5.6V.8h13.9v14.3h-.1zm-13.9 16.6v5.6c8-1.5 13.9-8.4 13.9-16.2v-.3H.95v.3c0 7.7 5.9 14.6 13.9 16.1v-5.6h5.5v.1z" fill="#C00"/></g><defs><clipPath id="clip0_216_738"><path fill="#fff" transform="translate(.95 .8)" d="M0 0h170.1v36.4H0z"/></clipPath></defs></svg>
